X: 236
T: Prelude No. 7	 Op. 28
C: Fryderyk Chopin
%%abc-version 2.0
%%abcx-abcm2ps-target-version 5.9.1 (29 Sep 2008)
%%abc-creator hum2abc beta
%%abcx-conversion-date 2021/10/03 11:23:34
%%abc-edited-by Wojciech Jakubiak-Danek
%%abc-edited-by Zofia Niedbalska
%%abc-edited-by Leszek Kubiak
%%abcx-initial-encoding-date 2019-06-14
%%humdrum-veritas 358986394
%%humdrum-veritas-data 2569147516
%%linebreak <none>
%%barnumbers 0
L: 1/4
M: 3/4
N: Derived from 028-1-BH-007.krn
P: Vingt-quatre Préludes pour le Piano
Q: "Andantino." 1/4=92
%%staves {1 2}
V: 1 clef=treble
V: 2 clef=bass
K: A
[V:1] E [I:setbarnb 1]| 
[V:2] z | 
[V:1] c/>d/[BGD][BGD] | 
[V:2] E,,[EE,][EE,] | 
[V:1] [B2G2D2][fd] | 
[V:2] [E2E,2]z | 
[V:1] [^d/^B/]>[e/c/][ac][ac] | 
[V:2] A,,[EA,][EA,] | 
[V:1] [a2c2][cE] | 
[V:2] [E2A,2]z | 
[V:1] [^A/C/]>[B/D/-][dF][dF-] & xD2 | 
[V:2] E,,[B,E,][B,E,] | 
[V:1] [d2F2][^GD] & D2x | 
[V:2] [B,2E,2]z | 
[V:1] [G/D/]>[A/C/][cC][cC] | 
[V:2] A,,,[EA,E,][EA,E,] | 
[V:1] [c2C2]E- | 
[V:2] [E2A,2E,2]z | 
[V:1] c/>d/[BGD][BGD] & [GE]x2 | 
[V:2] E,,[EE,][EE,] | 
[V:1] [B2G2D2][fd] | 
[V:2] [E2E,2]z | 
[V:1] x[c'a][c'a] & [d/^B/]>[e/c/]-[e2c2] | 
[V:2] A,,[AEA,][AEA,] | 
[V:1] [c'2^a2e2][cA] & [c2^A2]x | 
[V:2] [F2E2C2F,2]z | 
[V:1] [c/^A/]>[d/B/][fB][f=A] | 
[V:2] B,,,[DF,][DB,F,] | 
[V:1] [f2G2][GD] | 
[V:2] [D2B,2E,2]z | 
[V:1] [B/D/]>[A/C/] {/A-}[ac][ac] & xA2- | 
[V:2] A,,,[EA,E,][EA,E,] | 
[V:1] [a2c2A2]z |]  
[V:2] [E2A,2]z |]
